lib/functional/system&devices/hard-drives.svg

<svg xmlns="http://www.w3.org/2000/svg" fill="none" stroke="currentColor" aria-hidden="true" viewBox="0 0 32 32"><g id="Icon-HardDrives"><g clip-path="url(#clip0_9_535)"><g id="size=md (32px)"><g id="HardDrives"><path id="Vector" stroke-linecap="round" stroke-linejoin="round" stroke-width="2" d="M26 18H6C5.44772 18 5 18.4477 5 19V25C5 25.5523 5.44772 26 6 26H26C26.5523 26 27 25.5523 27 25V19C27 18.4477 26.5523 18 26 18Z"/><path id="Vector_2" stroke-linecap="round" stroke-linejoin="round" stroke-width="2" d="M26 6H6C5.44772 6 5 6.44772 5 7V13C5 13.5523 5.44772 14 6 14H26C26.5523 14 27 13.5523 27 13V7C27 6.44772 26.5523 6 26 6Z"/><path id="Vector_3" fill="#101828" d="M22.5 11.5C23.3284 11.5 24 10.8284 24 10C24 9.17157 23.3284 8.5 22.5 8.5C21.6716 8.5 21 9.17157 21 10C21 10.8284 21.6716 11.5 22.5 11.5Z"/><path id="Vector_4" fill="#101828" d="M22.5 23.5C23.3284 23.5 24 22.8284 24 22C24 21.1716 23.3284 20.5 22.5 20.5C21.6716 20.5 21 21.1716 21 22C21 22.8284 21.6716 23.5 22.5 23.5Z"/></g></g></g></g><defs><clipPath id="clip0_9_535"><rect width="32" height="32" fill="white" rx="5"/></clipPath></defs></svg>

<svg xmlns="http://www.w3.org/2000/svg" fill="none" stroke="currentColor" aria-hidden="true" viewBox="0 0 32 32"><path stroke-linecap="round" stroke-linejoin="round" stroke-width="2" d="M26 18H6a1 1 0 0 0-1 1v6a1 1 0 0 0 1 1h20a1 1 0 0 0 1-1v-6a1 1 0 0 0-1-1Zm0-12H6a1 1 0 0 0-1 1v6a1 1 0 0 0 1 1h20a1 1 0 0 0 1-1V7a1 1 0 0 0-1-1Z"/><path fill="#101828" d="M22.5 11.5a1.5 1.5 0 1 0 0-3 1.5 1.5 0 0 0 0 3Zm0 12a1.5 1.5 0 1 0 0-3 1.5 1.5 0 0 0 0 3Z"/></svg>
